public/icons/aws.svg

<?xml version="1.0" encoding="UTF-8"?>
<!-- Uploaded to: SVG Repo, www.svgrepo.com, Generator: SVG Repo Mixer Tools -->
<svg width="800px" height="800px" viewBox="0 -51.5 256 256" version="1.1" xmlns="http://www.w3.org/2000/svg" xmlns:xlink="http://www.w3.org/1999/xlink" preserveAspectRatio="xMidYMid">
		<g>
				<path d="M72.392053,55.4384106 C72.392053,58.5748344 72.7311258,61.1178808 73.3245033,62.9827815 C74.002649,64.8476821 74.8503311,66.8821192 76.0370861,69.0860927 C76.4609272,69.7642384 76.6304636,70.4423841 76.6304636,71.0357616 C76.6304636,71.8834437 76.1218543,72.7311258 75.0198675,73.5788079 L69.6794702,77.1390728 C68.9165563,77.6476821 68.1536424,77.9019868 67.4754967,77.9019868 C66.6278146,77.9019868 65.7801325,77.4781457 64.9324503,76.7152318 C63.7456954,75.4437086 62.7284768,74.0874172 61.8807947,72.7311258 C61.0331126,71.2900662 60.1854305,69.6794702 59.2529801,67.7298013 C52.6410596,75.5284768 44.3337748,79.4278146 34.3311258,79.4278146 C27.210596,79.4278146 21.5311258,77.3933775 17.3774834,73.3245033 C13.2238411,69.2556291 11.1046358,63.8304636 11.1046358,57.0490066 C11.1046358,49.8437086 13.6476821,43.994702 18.818543,39.586755 C23.989404,35.1788079 30.8556291,32.9748344 39.586755,32.9748344 C42.4688742,32.9748344 45.4357616,33.2291391 48.5721854,33.6529801 C51.7086093,34.0768212 54.9298013,34.7549669 58.3205298,35.5178808 L58.3205298,29.3298013 C58.3205298,22.8874172 56.9642384,18.394702 54.3364238,15.7668874 C51.6238411,13.1390728 47.0463576,11.8675497 40.5192053,11.8675497 C37.5523179,11.8675497 34.5006623,12.2066225 31.3642384,12.9695364 C28.2278146,13.7324503 25.1761589,14.6649007 22.2092715,15.8516556 C20.8529801,16.4450331 19.8357616,16.784106 19.2423841,16.9536424 C18.6490066,17.1231788 18.2251656,17.207947 17.8860927,17.207947 C16.6993377,17.207947 16.1059603,16.3602649 16.1059603,14.5801325 L16.1059603,10.4264901 C16.1059603,9.07019868 16.2754967,8.05298013 16.6993377,7.45960265 C17.1231788,6.86622517 17.8860927,6.27284768 19.0728477,5.6794702 C22.0397351,4.15364238 25.6,2.88211921 29.7536424,1.86490066 C33.9072848,0.762913907 38.3152318,0.254304636 42.9774834,0.254304636 C53.0649007,0.254304636 60.4397351,2.54304636 65.186755,7.1205298 C69.8490066,11.6980132 72.2225166,18.6490066 72.2225166,27.9735099 L72.2225166,55.4384106 L72.392053,55.4384106 Z M37.9761589,68.3231788 C40.7735099,68.3231788 43.6556291,67.8145695 46.7072848,66.797351 C49.7589404,65.7801325 52.4715232,63.9152318 54.7602649,61.3721854 C56.1165563,59.7615894 57.1337748,57.981457 57.6423841,55.9470199 C58.1509934,53.9125828 58.4900662,51.4543046 58.4900662,48.5721854 L58.4900662,45.0119205 C56.0317881,44.418543 53.4039735,43.9099338 50.6913907,43.5708609 C47.9788079,43.2317881 45.3509934,43.0622517 42.7231788,43.0622517 C37.0437086,43.0622517 32.8900662,44.1642384 30.0927152,46.4529801 C27.2953642,48.7417219 25.9390728,51.9629139 25.9390728,56.2013245 C25.9390728,60.1854305 26.9562914,63.1523179 29.0754967,65.186755 C31.1099338,67.3059603 34.0768212,68.3231788 37.9761589,68.3231788 Z M106.045033,77.4781457 C104.519205,77.4781457 103.501987,77.2238411 102.823841,76.6304636 C102.145695,76.1218543 101.552318,74.9350993 101.043709,73.3245033 L81.1231788,7.7986755 C80.6145695,6.10331126 80.3602649,5.0013245 80.3602649,4.40794702 C80.3602649,3.05165563 81.0384106,2.28874172 82.394702,2.28874172 L90.7019868,2.28874172 C92.3125828,2.28874172 93.4145695,2.54304636 94.007947,3.13642384 C94.6860927,3.64503311 95.194702,4.83178808 95.7033113,6.44238411 L109.944371,62.5589404 L123.168212,6.44238411 C123.592053,4.74701987 124.100662,3.64503311 124.778808,3.13642384 C125.456954,2.62781457 126.643709,2.28874172 128.169536,2.28874172 L134.950993,2.28874172 C136.561589,2.28874172 137.663576,2.54304636 138.341722,3.13642384 C139.019868,3.64503311 139.613245,4.83178808 139.952318,6.44238411 L153.345695,63.2370861 L168.010596,6.44238411 C168.519205,4.74701987 169.112583,3.64503311 169.70596,3.13642384 C170.384106,2.62781457 171.486093,2.28874172 173.011921,2.28874172 L180.895364,2.28874172 C182.251656,2.28874172 183.01457,2.96688742 183.01457,4.40794702 C183.01457,4.83178808 182.929801,5.25562914 182.845033,5.76423841 C182.760265,6.27284768 182.590728,6.95099338 182.251656,7.88344371 L161.822517,73.4092715 C161.313907,75.1046358 160.72053,76.2066225 160.042384,76.7152318 C159.364238,77.2238411 158.262252,77.5629139 156.821192,77.5629139 L149.531126,77.5629139 C147.92053,77.5629139 146.818543,77.3086093 146.140397,76.7152318 C145.462252,76.1218543 144.868874,75.0198675 144.529801,73.3245033 L131.390728,18.6490066 L118.336424,73.2397351 C117.912583,74.9350993 117.403974,76.0370861 116.725828,76.6304636 C116.047682,77.2238411 114.860927,77.4781457 113.335099,77.4781457 L106.045033,77.4781457 Z M214.972185,79.7668874 C210.564238,79.7668874 206.156291,79.2582781 201.917881,78.2410596 C197.67947,77.2238411 194.37351,76.1218543 192.169536,74.8503311 C190.813245,74.0874172 189.880795,73.2397351 189.541722,72.4768212 C189.202649,71.7139073 189.033113,70.8662252 189.033113,70.1033113 L189.033113,65.7801325 C189.033113,64 189.711258,63.1523179 190.982781,63.1523179 C191.491391,63.1523179 192,63.2370861 192.508609,63.4066225 C193.017219,63.5761589 193.780132,63.9152318 194.627815,64.2543046 C197.509934,65.5258278 200.646358,66.5430464 203.952318,67.2211921 C207.343046,67.8993377 210.649007,68.2384106 214.039735,68.2384106 C219.380132,68.2384106 223.533775,67.3059603 226.415894,65.4410596 C229.298013,63.5761589 230.823841,60.8635762 230.823841,57.3880795 C230.823841,55.0145695 230.060927,53.0649007 228.535099,51.4543046 C227.009272,49.8437086 224.127152,48.402649 219.97351,47.0463576 L207.682119,43.2317881 C201.49404,41.2821192 196.916556,38.4 194.119205,34.5854305 C191.321854,30.8556291 189.880795,26.7019868 189.880795,22.2940397 C189.880795,18.7337748 190.643709,15.597351 192.169536,12.8847682 C193.695364,10.1721854 195.729801,7.7986755 198.272848,5.93377483 C200.815894,3.98410596 203.698013,2.54304636 207.088742,1.52582781 C210.47947,0.508609272 214.039735,0.0847682119 217.769536,0.0847682119 C219.634437,0.0847682119 221.584106,0.169536424 223.449007,0.42384106 C225.398675,0.678145695 227.178808,1.01721854 228.95894,1.35629139 C230.654305,1.78013245 232.264901,2.20397351 233.790728,2.71258278 C235.316556,3.22119205 236.503311,3.72980132 237.350993,4.2384106 C238.537748,4.91655629 239.38543,5.59470199 239.89404,6.35761589 C240.402649,7.03576159 240.656954,7.96821192 240.656954,9.15496689 L240.656954,13.1390728 C240.656954,14.9192053 239.978808,15.8516556 238.707285,15.8516556 C238.029139,15.8516556 236.927152,15.5125828 235.486093,14.8344371 C230.654305,12.6304636 225.229139,11.5284768 219.210596,11.5284768 C214.378808,11.5284768 210.564238,12.2913907 207.936424,13.9019868 C205.308609,15.5125828 203.952318,17.9708609 203.952318,21.4463576 C203.952318,23.8198675 204.8,25.8543046 206.495364,27.4649007 C208.190728,29.0754967 211.327152,30.6860927 215.819868,32.1271523 L227.856954,35.9417219 C233.960265,37.8913907 238.368212,40.6039735 240.996026,44.0794702 C243.623841,47.5549669 244.895364,51.5390728 244.895364,55.9470199 C244.895364,59.592053 244.13245,62.8980132 242.691391,65.7801325 C241.165563,68.6622517 239.131126,71.205298 236.503311,73.2397351 C233.875497,75.3589404 230.739073,76.8847682 227.09404,77.986755 C223.27947,79.1735099 219.295364,79.7668874 214.972185,79.7668874 Z" fill="#252F3E" fill-rule="nonzero">
</path>
				<path d="M230.993377,120.964238 C203.104636,141.562914 162.58543,152.498013 127.745695,152.498013 C78.9192053,152.498013 34.9245033,134.442384 1.69536424,104.434437 C-0.932450331,102.060927 1.4410596,98.8397351 4.57748344,100.704636 C40.5192053,121.557616 84.8529801,134.188079 130.712583,134.188079 C161.65298,134.188079 195.645033,127.745695 226.924503,114.521854 C231.586755,112.402649 235.570861,117.57351 230.993377,120.964238 Z M242.606623,107.740397 C239.046358,103.162914 219.04106,105.536424 209.970861,106.638411 C207.258278,106.977483 206.834437,104.603974 209.292715,102.823841 C225.229139,91.6344371 251.422517,94.8556291 254.474172,98.5854305 C257.525828,102.4 253.62649,128.593377 238.707285,141.139073 C236.418543,143.088742 234.21457,142.071523 235.231788,139.528477 C238.622517,131.136424 246.166887,112.233113 242.606623,107.740397 Z" fill="#FF9900">
</path>
		</g>
</svg>

<svg width="800" height="800" viewBox="0 -51.5 256 256" xmlns="http://www.w3.org/2000/svg"
	preserveAspectRatio="xMidYMid">
	<path
		d="M72.392 55.438c0 3.137.34 5.68.933 7.545a45.373 45.373 0 002.712 6.103c.424.678.593 1.356.593 1.95 0 .847-.508 1.695-1.61 2.543l-5.34 3.56c-.763.509-1.526.763-2.205.763-.847 0-1.695-.424-2.543-1.187a26.224 26.224 0 01-3.051-3.984c-.848-1.44-1.696-3.052-2.628-5.001-6.612 7.798-14.92 11.698-24.922 11.698-7.12 0-12.8-2.035-16.954-6.103-4.153-4.07-6.272-9.495-6.272-16.276 0-7.205 2.543-13.054 7.714-17.462 5.17-4.408 12.037-6.612 20.768-6.612 2.882 0 5.849.254 8.985.678 3.137.424 6.358 1.102 9.749 1.865V29.33c0-6.443-1.357-10.935-3.985-13.563-2.712-2.628-7.29-3.9-13.817-3.9-2.967 0-6.018.34-9.155 1.103-3.136.762-6.188 1.695-9.155 2.882-1.356.593-2.373.932-2.967 1.102-.593.17-1.017.254-1.356.254-1.187 0-1.78-.848-1.78-2.628v-4.154c0-1.356.17-2.373.593-2.966.424-.594 1.187-1.187 2.374-1.78 2.967-1.526 6.527-2.798 10.68-3.815C33.908.763 38.316.255 42.978.255c10.088 0 17.463 2.288 22.21 6.866 4.662 4.577 7.036 11.528 7.036 20.853v27.464h.17zM37.976 68.323c2.798 0 5.68-.508 8.731-1.526 3.052-1.017 5.765-2.882 8.053-5.425 1.357-1.61 2.374-3.39 2.882-5.425.509-2.034.848-4.493.848-7.375v-3.56a70.791 70.791 0 00-7.799-1.441 63.874 63.874 0 00-7.968-.509c-5.68 0-9.833 1.102-12.63 3.391-2.798 2.289-4.154 5.51-4.154 9.748 0 3.984 1.017 6.951 3.136 8.986 2.035 2.119 5.002 3.136 8.901 3.136zm68.069 9.155c-1.526 0-2.543-.254-3.221-.848-.678-.508-1.272-1.695-1.78-3.305L81.124 7.799c-.51-1.696-.764-2.798-.764-3.391 0-1.356.678-2.12 2.035-2.12h8.307c1.61 0 2.713.255 3.306.848.678.509 1.187 1.696 1.695 3.306l14.241 56.117 13.224-56.117c.424-1.695.933-2.797 1.61-3.306.679-.508 1.866-.847 3.392-.847h6.781c1.61 0 2.713.254 3.39.847.679.509 1.272 1.696 1.611 3.306l13.394 56.795L168.01 6.442c.508-1.695 1.102-2.797 1.695-3.306.678-.508 1.78-.847 3.306-.847h7.883c1.357 0 2.12.678 2.12 2.119 0 .424-.085.848-.17 1.356-.085.509-.254 1.187-.593 2.12l-20.43 65.525c-.508 1.696-1.101 2.798-1.78 3.306-.678.509-1.78.848-3.22.848h-7.29c-1.611 0-2.713-.254-3.392-.848-.678-.593-1.271-1.695-1.61-3.39l-13.14-54.676-13.054 54.59c-.423 1.696-.932 2.798-1.61 3.391-.678.594-1.865.848-3.39.848h-7.291zm108.927 2.289c-4.408 0-8.816-.509-13.054-1.526-4.239-1.017-7.544-2.12-9.748-3.39-1.357-.764-2.29-1.611-2.628-2.374a5.983 5.983 0 01-.509-2.374V65.78c0-1.78.678-2.628 1.95-2.628a4.8 4.8 0 011.526.255c.508.17 1.271.508 2.119.847a46.108 46.108 0 009.324 2.967 50.907 50.907 0 0010.088 1.017c5.34 0 9.494-.932 12.376-2.797 2.882-1.865 4.408-4.577 4.408-8.053 0-2.373-.763-4.323-2.289-5.934-1.526-1.61-4.408-3.051-8.561-4.408l-12.292-3.814c-6.188-1.95-10.765-4.832-13.563-8.647-2.797-3.73-4.238-7.883-4.238-12.291 0-3.56.763-6.697 2.289-9.41 1.525-2.712 3.56-5.085 6.103-6.95 2.543-1.95 5.425-3.391 8.816-4.408 3.39-1.017 6.95-1.441 10.68-1.441 1.865 0 3.815.085 5.68.339 1.95.254 3.73.593 5.51.932 1.695.424 3.306.848 4.832 1.357 1.526.508 2.712 1.017 3.56 1.525 1.187.679 2.034 1.357 2.543 2.12.509.678.763 1.61.763 2.797v3.984c0 1.78-.678 2.713-1.95 2.713-.678 0-1.78-.34-3.22-1.018-4.833-2.204-10.258-3.306-16.276-3.306-4.832 0-8.647.763-11.275 2.374-2.627 1.61-3.984 4.069-3.984 7.544 0 2.374.848 4.408 2.543 6.019 1.696 1.61 4.832 3.221 9.325 4.662l12.037 3.815c6.103 1.95 10.511 4.662 13.139 8.137 2.628 3.476 3.9 7.46 3.9 11.868 0 3.645-.764 6.951-2.205 9.833-1.525 2.882-3.56 5.425-6.188 7.46-2.628 2.119-5.764 3.645-9.409 4.747-3.815 1.187-7.799 1.78-12.122 1.78z"
		fill="#fff" />
	<path
		d="M230.993 120.964c-27.888 20.599-68.408 31.534-103.247 31.534-48.827 0-92.821-18.056-126.05-48.064-2.628-2.373-.255-5.594 2.881-3.73 35.942 20.854 80.276 33.484 126.136 33.484 30.94 0 64.932-6.442 96.212-19.666 4.662-2.12 8.646 3.052 4.068 6.442zm11.614-13.224c-3.56-4.577-23.566-2.204-32.636-1.102-2.713.34-3.137-2.034-.678-3.814 15.936-11.19 42.13-7.968 45.181-4.239 3.052 3.815-.848 30.008-15.767 42.554-2.288 1.95-4.492.933-3.475-1.61 3.39-8.393 10.935-27.296 7.375-31.789z"
		fill="#F90" />
</svg>
